img/circle-trangle.svg

<svg width="51" height="65" viewBox="0 0 51 65" fill="none" xmlns="http://www.w3.org/2000/svg">
<path fill-rule="evenodd" clip-rule="evenodd" d="M1.38037 64.9185H48.7961C49.1622 64.9185 49.5133 64.7726 49.7722 64.5129C50.0311 64.2532 50.1765 63.901 50.1765 63.5337V1.38478C50.1765 0.619987 49.5585 0 48.7961 0H1.38037C0.618014 0 0 0.619987 0 1.38478V63.5337C0 64.2985 0.618014 64.9185 1.38037 64.9185ZM47.4158 62.1489H2.76074V2.76956H47.4158V62.1489Z" fill="#093F68"/>
<path fill-rule="evenodd" clip-rule="evenodd" d="M8.46322 58.0529H37.382C37.8438 58.0505 38.2738 57.8166 38.5277 57.4297C38.7834 57.0498 38.835 56.5676 38.6658 56.1419L24.1995 20.6777C23.9877 20.1606 23.4868 19.8219 22.9295 19.8191C22.3672 19.8163 21.8594 20.1559 21.6458 20.6777L7.19328 56.1419C7.01994 56.5654 7.06645 57.0475 7.31751 57.4297C7.57148 57.8166 8.00146 58.0505 8.46322 58.0529ZM35.3667 55.2833H10.52L22.9433 24.8182L35.3667 55.2833Z" fill="#093F68"/>
<path fill-rule="evenodd" clip-rule="evenodd" d="M15.4632 30.659H40.5584C41.3207 30.659 41.9388 30.0391 41.9388 29.2743V8.61336C41.9388 7.84856 41.3207 7.22858 40.5584 7.22858H15.4632C14.7009 7.22858 14.0828 7.84856 14.0828 8.61336V29.2743C14.0828 30.0391 14.7009 30.659 15.4632 30.659ZM39.178 27.8895H16.8988L16.8436 9.99814H39.178V27.8895Z" fill="#093F68"/>
</svg>

<svg xmlns="http://www.w3.org/2000/svg" fill="none" viewBox="0 0 51 65"><path fill="#093F68" fill-rule="evenodd" d="M1.38 64.918h47.416c.366 0 .717-.145.976-.405.26-.26.404-.612.404-.98V1.386C50.176.62 49.56 0 48.796 0H1.38C.618 0 0 .62 0 1.385v62.149c0 .765.618 1.384 1.38 1.384Zm46.036-2.77H2.76V2.77h44.655v59.379Z" clip-rule="evenodd"/><path fill="#093F68" fill-rule="evenodd" d="M8.463 58.053h28.919a1.38 1.38 0 0 0 1.146-.623c.255-.38.307-.862.138-1.288L24.2 20.678a1.38 1.38 0 0 0-2.554 0L7.193 56.142c-.173.423-.127.905.125 1.288.253.387.683.62 1.145.623Zm26.904-2.77H10.52l12.423-30.465 12.424 30.465Z" clip-rule="evenodd"/><path fill="#093F68" fill-rule="evenodd" d="M15.463 30.659h25.095c.763 0 1.38-.62 1.38-1.385V8.614c0-.765-.617-1.385-1.38-1.385H15.463c-.762 0-1.38.62-1.38 1.384v20.661c0 .765.618 1.385 1.38 1.385Zm23.715-2.77h-22.28L16.845 10h22.334v17.89Z" clip-rule="evenodd"/></svg>
